static/demos/api/skeleton-text/thumbnail.svg

<svg width="512" height="512" viewBox="0 0 512 512" fill="none" xmlns="http://www.w3.org/2000/svg">
<g clip-path="url(#clip0_1765_7058)">
<path d="M0 0H512V512H0V0Z" fill="#D7DDE2"/>
<g opacity="0.8">
<path d="M256 176C211.792 176 176 211.812 176 256.044C176 300.277 211.792 336 256 336C300.208 336 336 300.188 336 256.044C336 211.812 300.208 176 256 176Z" fill="#222D3A"/>
<path d="M256 48C141.1 48 48 141.1 48 256C48 370.9 141.1 464 256 464C370.9 464 464 370.9 464 256C464 141.1 370.9 48 256 48ZM256 370C193 370 142 318.9 142 256C142 193 193.1 142 256 142C318.9 142 370 193 370 256C370 319 319 370 256 370Z" fill="#222D3A"/>
</g>
</g>
<defs>
<clipPath id="clip0_1765_7058">
<rect width="512" height="512" fill="white"/>
</clipPath>
</defs>
</svg>

<svg version="1.1" id="Layer_1" xmlns="http://www.w3.org/2000/svg" x="0" y="0" viewBox="0 0 512 512" xml:space="preserve"><style>.st1{fill:#82aeff}</style><path fill="#c5dbff" d="M0 0h512v512H0z"/><path class="st1" d="M256 165.8c-49.9 0-90.3 40.4-90.3 90.3s40.4 90.2 90.3 90.2 90.3-40.4 90.3-90.2c0-49.9-40.4-90.3-90.3-90.3zm0 130.6c-22.3 0-40.4-18.1-40.4-40.4s18.1-40.4 40.4-40.4 40.4 18.1 40.4 40.4-18.1 40.4-40.4 40.4z"/><path class="st1" d="M256 48C141.1 48 48 141.1 48 256s93.1 208 208 208 208-93.1 208-208S370.9 48 256 48zm0 322c-63 0-114-51.1-114-114 0-63 51.1-114 114-114s114 51 114 114-51 114-114 114z"/></svg>
